dist/svg/u1F1F5.svg

<svg id="Layer_1" data-name="Layer 1" xmlns="http://www.w3.org/2000/svg" viewBox="0 0 40 40"><defs><style>.cls-1{fill:#afb7c0;}.cls-2{fill:none;}</style></defs><path class="cls-1" d="M28.5,7.1a4.405,4.405,0,0,1,4.4,4.4v17a4.405,4.405,0,0,1-4.4,4.4h-17a4.405,4.405,0,0,1-4.4-4.4v-17a4.405,4.405,0,0,1,4.4-4.4h17m0-3.6h-17a8,8,0,0,0-8,8v17a8,8,0,0,0,8,8h17a8,8,0,0,0,8-8v-17a8,8,0,0,0-8-8Z"/><path class="cls-1" d="M27.394,17.176c0,3.648-2.808,6.1-6.889,6.1h-3.1v5.737H13.568V11.1h7.465C25.018,11.1,27.394,13.5,27.394,17.176ZM19.4,20.056c2.3,0,4.033-.792,4.033-2.88,0-2.064-1.681-2.881-3.913-2.881H17.409v5.761Z"/><rect class="cls-2" width="40" height="40"/></svg>

<?xml version="1.0" encoding="UTF-8"?><svg id="a" xmlns="http://www.w3.org/2000/svg" viewBox="0 0 40 40"><g><path d="M28.5,3.5H11.5C7.082,3.5,3.5,7.082,3.5,11.5V28.5c0,4.418,3.582,8,8,8H28.5c4.418,0,8-3.582,8-8V11.5c0-4.418-3.582-8-8-8Zm4.4,25c0,2.426-1.974,4.4-4.4,4.4H11.5c-2.426,0-4.4-1.974-4.4-4.4V11.5c0-2.426,1.974-4.4,4.4-4.4H28.5c2.426,0,4.4,1.974,4.4,4.4V28.5Z" fill="#afb7c0"/><path d="M21.033,11.103h-7.465V29.009h3.841v-5.736h3.096c4.081,0,6.889-2.448,6.889-6.097,0-3.672-2.376-6.073-6.36-6.073Zm-1.632,8.953h-1.992v-5.761h2.112c2.231,0,3.912,.816,3.912,2.88,0,2.088-1.729,2.88-4.032,2.88Z" fill="#afb7c0"/></g><rect width="40" height="40" fill="none"/></svg>
